X:106
T:Lou plesi dei damo
O:France
A:Provence
C:Trad.
R:Marche
Z:Transcrit par Michel Bellon 2004-02-18
S:Carnet du tambourinaire Ginas (1924)
M:2/4
L:1/8
K:Bb
V:Galoubet
F |: BB/B/ BB | B2FB | dd/d/ dd | d2Bd | ff/f/ ff | fdBd | c2Ac |1 Bz B F :|2 Bz B!fine!z ||
f2g>f | d2>B2 | FdcB | B2Az | e2f>e | c2>A2 | Fedc | d2Bz | f2g>f | d2>B2 | A=Bcd | e3z | F2B>c | defg | f=e_ec | Bz B F |!D.C.!|]
%%footer $D   Galouvielle-MBe 2008 \nMarche (France)
